!! Ludwig van Beethoven, "Variation 1" from
!! "Six Easy Variations on a Swiss Air" (1798) for harpsichord, Opus 183.
!! Kalmus Edition, Score No. 1031; (CGC library) M3.B42 Ser. 16, Vol. 6, p.7
!! Andante con moto.
**kern	**kern
*M4/4	*M4/4
*F	*F
4r	4c
=1	=1
4F	12a
.	12Bn
.	12c
4E	12g
.	12B
.	12c
4F	12a
.	12B
.	12c
4D	12f
.	12B
.	12c
=2	=2
12C	[2cc
12F	.
12A	.
12c	.
12d	.
12Bn	.
4c	12cc]
.	12dd
.	12cc
4r	12b-
.	12a
.	12g
=3	=3
12r	4f
12d	.
12c	.
12B-	4r
12A	.
12G	.
4F	12r
.	12r
.	12g#
4r	12a
.	12b-
.	12bn
=4	=4
4e	12cc
.	12f#
.	12gn
4d	12dd
.	12f#
.	12g
4c	12ee
.	12f#
.	12g
4e	12cc
.	12f#
.	12g
=5	=5
12F	[2ffn
12A	.
12c#	.
12d	.
12c#	.
12d	.
4G 4Bn	12ff]
.	12aa
.	12gg
4r	12ff
.	12ee
.	12dd
=6	=6
12r	4cc
12cn	.
12G	.
12F	4r
12E	.
12G	.
4C	4r
4r	4cc
=7	=7
4r	12ff
.	12f
.	12ff
{4c	12dd#
.	12ee
.	12f
4B-	12ee
.	12ddn
.	12f
4A}	12dd
.	12cc
.	12f
=8	=8
4r	12ff
.	12f
.	12ff
4c	12dd#
.	12ee
.	12f
[4B-	12ee
.	12ddn
.	12f
12B-]	12dd
12c	12cc
12B-	12e
=9	=9
4A	12f
.	12c
.	12f
4E	12g
.	12Bn
.	12c
4F	12a
.	12e
.	12f
4D	12b-
.	12e
.	12f
=10	=10
12C	[2cc
12F	.
12A	.
12c	.
12d	.
12Bn	.
4c	12cc]
.	12dd
.	12cc
4r	12b-
.	12a
.	12g
=11	=11
12r	4f
12d	.
12c	.
12B-	4r
12A	.
12G	.
4F	4r
==	==
*-	*-
